;FLAVOR:UltiGCode
;TIME:1
;MATERIAL:1
;MATERIAL2:0
;Layer count: 1
;LAYER:0

M107
;fan off
G10
;retract filament according to settings of M207
G0 F4320 X22.1 Y22.1 Z.3
;Coordinated Movement X Y Z E

;TYPE:WALL-INNER

G11
;retract recover filament according to settings of M208
G1 F900 E25
G1 F900 E40
G1 X80
G1 Y27
G1 X30


G0 F1000 X0035.0 Y0040.0
G1 Z1
G1 F300  X0035.0 Y0040.0 E0000040.000
G0 F1000 X0035.0 Y0040.0
G1 Z1
G1 F300  X0040.0 Y0050.0 E0000046.708
G0 F1000 X0040.0 Y0050.0
G1 Z1
G1 F300  X0035.0 Y0055.0 E0000050.951
G0 F1000 X0035.0 Y0055.0
G1 Z1
G1 F300  X0040.0 Y0060.0 E0000055.193
G0 F1000 X0040.0 Y0060.0
G1 Z1
G1 F300  X0035.0 Y0065.0 E0000059.436
G0 F1000 X0035.0 Y0065.0
G1 Z1
G1 F300  X0040.0 Y0070.0 E0000063.679
G0 F1000 X0040.0 Y0070.0
G1 Z1
G1 F300  X0035.0 Y0075.0 E0000067.921
G0 F1000 X0035.0 Y0075.0
G1 Z1
G1 F300  X0040.0 Y0080.0 E0000072.164
G0 F1000 X0040.0 Y0080.0
G1 Z1
G1 F300  X0035.0 Y0085.0 E0000076.407
G0 F1000 X0035.0 Y0085.0
G1 Z1
G1 F300  X0040.0 Y0090.0 E0000080.649
G0 F1000 X0040.0 Y0090.0
G1 Z1
G1 F300  X0035.0 Y0095.0 E0000084.892
G0 F1000 X0035.0 Y0095.0
G1 Z1
G1 F300  X0040.0 Y0100.0 E0000089.135
G0 F1000 X0040.0 Y0100.0
G1 Z1
G1 F300  X0035.0 Y0105.0 E0000093.377
G0 F1000 X0035.0 Y0105.0
G1 Z1
G1 F300  X0040.0 Y0110.0 E0000097.620
G0 F1000 X0040.0 Y0110.0
G1 Z1
G1 F300  X0035.0 Y0115.0 E0000101.863
G0 F1000 X0035.0 Y0115.0
G1 Z1
G1 F300  X0040.0 Y0120.0 E0000106.105
G0 F1000 X0040.0 Y0120.0
G1 Z1
G1 F300  X0035.0 Y0125.0 E0000110.348
G0 F1000 X0035.0 Y0125.0
G1 Z1
G1 F300  X0040.0 Y0130.0 E0000114.590
G0 F1000 X0040.0 Y0130.0
G1 Z1
G1 F300  X0035.0 Y0135.0 E0000118.833
G0 F1000 X0035.0 Y0135.0
G1 Z1
G1 F300  X0040.0 Y0140.0 E0000123.076
G0 F1000 X0040.0 Y0140.0
G1 Z1
G1 F300  X0035.0 Y0145.0 E0000127.318
G0 F1000 X0035.0 Y0145.0
G1 Z1
G1 F300  X0040.0 Y0150.0 E0000131.561
G0 F1000 X0040.0 Y0150.0
G1 Z1
G1 F300  X0035.0 Y0155.0 E0000135.804
G0 F1000 X0035.0 Y0155.0
G1 Z1
G1 F300  X0040.0 Y0160.0 E0000140.046
G0 F1000 X0040.0 Y0160.0
G1 Z1
G1 F300  X0035.0 Y0170.0 E0000146.754
G0 F1000 X0035.0 Y0170.0
G1 Z1
G1 F300  X0045.0 Y0165.0 E0000153.463
G0 F1000 X0045.0 Y0165.0
G1 Z1
G1 F300  X0050.0 Y0170.0 E0000157.705
G0 F1000 X0050.0 Y0170.0
G1 Z1
G1 F300  X0055.0 Y0165.0 E0000161.948
G0 F1000 X0055.0 Y0165.0
G1 Z1
G1 F300  X0060.0 Y0170.0 E0000166.191
G0 F1000 X0060.0 Y0170.0
G1 Z1
G1 F300  X0065.0 Y0165.0 E0000170.433
G0 F1000 X0065.0 Y0165.0
G1 Z1
G1 F300  X0070.0 Y0170.0 E0000174.676
G0 F1000 X0070.0 Y0170.0
G1 Z1
G1 F300  X0075.0 Y0165.0 E0000178.919
G0 F1000 X0075.0 Y0165.0
G1 Z1
G1 F300  X0080.0 Y0170.0 E0000183.161
G0 F1000 X0080.0 Y0170.0
G1 Z1
G1 F300  X0085.0 Y0165.0 E0000187.404
G0 F1000 X0085.0 Y0165.0
G1 Z1
G1 F300  X0090.0 Y0170.0 E0000191.646
G0 F1000 X0090.0 Y0170.0
G1 Z1
G1 F300  X0095.0 Y0165.0 E0000195.889
G0 F1000 X0095.0 Y0165.0
G1 Z1
G1 F300  X0100.0 Y0170.0 E0000200.132
G0 F1000 X0100.0 Y0170.0
G1 Z1
G1 F300  X0105.0 Y0165.0 E0000204.374
G0 F1000 X0105.0 Y0165.0
G1 Z1
G1 F300  X0110.0 Y0170.0 E0000208.617
G0 F1000 X0110.0 Y0170.0
G1 Z1
G1 F300  X0115.0 Y0165.0 E0000212.860
G0 F1000 X0115.0 Y0165.0
G1 Z1
G1 F300  X0125.0 Y0170.0 E0000219.568
G0 F1000 X0125.0 Y0170.0
G1 Z1
G1 F300  X0120.0 Y0160.0 E0000226.276
G0 F1000 X0120.0 Y0160.0
G1 Z1
G1 F300  X0125.0 Y0155.0 E0000230.519
G0 F1000 X0125.0 Y0155.0
G1 Z1
G1 F300  X0120.0 Y0150.0 E0000234.761
G0 F1000 X0120.0 Y0150.0
G1 Z1
G1 F300  X0125.0 Y0145.0 E0000239.004
G0 F1000 X0125.0 Y0145.0
G1 Z1
G1 F300  X0120.0 Y0140.0 E0000243.247
G0 F1000 X0120.0 Y0140.0
G1 Z1
G1 F300  X0125.0 Y0135.0 E0000247.489
G0 F1000 X0125.0 Y0135.0
G1 Z1
G1 F300  X0120.0 Y0130.0 E0000251.732
G0 F1000 X0120.0 Y0130.0
G1 Z1
G1 F300  X0125.0 Y0125.0 E0000255.975
G0 F1000 X0125.0 Y0125.0
G1 Z1
G1 F300  X0120.0 Y0120.0 E0000260.217
G0 F1000 X0120.0 Y0120.0
G1 Z1
G1 F300  X0125.0 Y0115.0 E0000264.460
G0 F1000 X0125.0 Y0115.0
G1 Z1
G1 F300  X0120.0 Y0110.0 E0000268.703
G0 F1000 X0120.0 Y0110.0
G1 Z1
G1 F300  X0125.0 Y0105.0 E0000272.945
G0 F1000 X0125.0 Y0105.0
G1 Z1
G1 F300  X0120.0 Y0100.0 E0000277.188
G0 F1000 X0120.0 Y0100.0
G1 Z1
G1 F300  X0125.0 Y0095.0 E0000281.431
G0 F1000 X0125.0 Y0095.0
G1 Z1
G1 F300  X0120.0 Y0090.0 E0000285.673
G0 F1000 X0120.0 Y0090.0
G1 Z1
G1 F300  X0125.0 Y0085.0 E0000289.916
G0 F1000 X0125.0 Y0085.0
G1 Z1
G1 F300  X0120.0 Y0080.0 E0000294.158
G0 F1000 X0120.0 Y0080.0
G1 Z1
G1 F300  X0125.0 Y0075.0 E0000298.401
G0 F1000 X0125.0 Y0075.0
G1 Z1
G1 F300  X0120.0 Y0070.0 E0000302.644
G0 F1000 X0120.0 Y0070.0
G1 Z1
G1 F300  X0125.0 Y0065.0 E0000306.886
G0 F1000 X0125.0 Y0065.0
G1 Z1
G1 F300  X0120.0 Y0060.0 E0000311.129
G0 F1000 X0120.0 Y0060.0
G1 Z1
G1 F300  X0125.0 Y0055.0 E0000315.372
G0 F1000 X0125.0 Y0055.0
G1 Z1
G1 F300  X0120.0 Y0050.0 E0000319.614
G0 F1000 X0120.0 Y0050.0
G1 Z1
G1 F300  X0125.0 Y0040.0 E0000326.323
G0 F1000 X0125.0 Y0040.0
G1 Z1
G1 F300  X0115.0 Y0045.0 E0000333.031
G0 F1000 X0115.0 Y0045.0
G1 Z1
G1 F300  X0110.0 Y0040.0 E0000337.273
G0 F1000 X0110.0 Y0040.0
G1 Z1
G1 F300  X0105.0 Y0045.0 E0000341.516
G0 F1000 X0105.0 Y0045.0
G1 Z1
G1 F300  X0100.0 Y0040.0 E0000345.759
G0 F1000 X0100.0 Y0040.0
G1 Z1
G1 F300  X0095.0 Y0045.0 E0000350.001
G0 F1000 X0095.0 Y0045.0
G1 Z1
G1 F300  X0090.0 Y0040.0 E0000354.244
G0 F1000 X0090.0 Y0040.0
G1 Z1
G1 F300  X0085.0 Y0045.0 E0000358.487
G0 F1000 X0085.0 Y0045.0
G1 Z1
G1 F300  X0080.0 Y0040.0 E0000362.729
G0 F1000 X0080.0 Y0040.0
G1 Z1
G1 F300  X0075.0 Y0045.0 E0000366.972
G0 F1000 X0075.0 Y0045.0
G1 Z1
G1 F300  X0070.0 Y0040.0 E0000371.215
G0 F1000 X0070.0 Y0040.0
G1 Z1
G1 F300  X0065.0 Y0045.0 E0000375.457
G0 F1000 X0065.0 Y0045.0
G1 Z1
G1 F300  X0060.0 Y0040.0 E0000379.700
G0 F1000 X0060.0 Y0040.0
G1 Z1
G1 F300  X0055.0 Y0045.0 E0000383.942
G0 F1000 X0055.0 Y0045.0
G1 Z1
G1 F300  X0050.0 Y0040.0 E0000388.185
G0 F1000 X0050.0 Y0040.0
G1 Z1
G1 F300  X0045.0 Y0045.0 E0000392.428
G0 F1000 X0045.0 Y0045.0
G1 Z1
G1 F300  X0035.0 Y0040.0 E0000399.136
G0 F1000 X0035.0 Y0040.0
G1 Z1
G1 F300  X0038.0 Y0046.0 E0000403.161
G0 F1000 X0040.0 Y0050.0
G1 Z1
G1 F300  X0040.0 Y0050.0 E0000403.161
G0 F1000 X0040.0 Y0050.0
G1 Z1
G1 F300  X0040.0 Y0165.0 E0000472.161
G0 F1000 X0040.0 Y0165.0
G1 Z1
G1 F300  X0120.0 Y0165.0 E0000520.161
G0 F1000 X0120.0 Y0165.0
G1 Z1
G1 F300  X0120.0 Y0045.0 E0000592.161
G0 F1000 X0120.0 Y0045.0
G1 Z1
G1 F300  X0040.0 Y0045.0 E0000640.161
G0 F1000 X0040.0 Y0045.0
G1 Z1
G1 F300  X0040.0 Y0053.0 E0000644.961
G0 F1000 X0040.0 Y0045.0
G1 Z1
G1 F300  X0040.0 Y0045.0 E0000644.961
G0 F1000 X0069.0 Y0045.0
G1 Z1
G1 F300  X0069.0 Y0045.0 E0000644.961
G0 F1000 X0069.0 Y0045.0
G1 Z1
G1 F300  X0070.0 Y0045.0 E0000645.561
G0 F1000 X0070.0 Y0045.0
G1 Z1
G1 F300  X0070.0 Y0055.0 E0000651.561
G0 F1000 X0070.0 Y0055.0
G1 Z1
G1 F300  X0045.0 Y0055.0 E0000666.561
G0 F1000 X0045.0 Y0055.0
G1 Z1
G1 F300  X0055.0 Y0070.0 E0000677.378
G0 F1000 X0055.0 Y0070.0
G1 Z1
G1 F300  X0050.0 Y0070.0 E0000680.378
G0 F1000 X0050.0 Y0070.0
G1 Z1
G1 F300  X0060.0 Y0085.0 E0000691.194
G0 F1000 X0060.0 Y0085.0
G1 Z1
G1 F300  X0055.0 Y0085.0 E0000694.194
G0 F1000 X0055.0 Y0085.0
G1 Z1
G1 F300  X0065.0 Y0100.0 E0000705.011
G0 F1000 X0065.0 Y0100.0
G1 Z1
G1 F300  X0060.0 Y0100.0 E0000708.011
G0 F1000 X0060.0 Y0100.0
G1 Z1
G1 F300  X0070.0 Y0115.0 E0000718.827
G0 F1000 X0070.0 Y0115.0
G1 Z1
G1 F300  X0065.0 Y0115.0 E0000721.827
G0 F1000 X0065.0 Y0115.0
G1 Z1
G1 F300  X0075.0 Y0130.0 E0000732.644
G0 F1000 X0075.0 Y0130.0
G1 Z1
G1 F300  X0070.0 Y0130.0 E0000735.644
G0 F1000 X0070.0 Y0130.0
G1 Z1
G1 F300  X0080.0 Y0145.0 E0000746.461
G0 F1000 X0080.0 Y0145.0
G1 Z1
G1 F300  X0080.0 Y0148.0 E0000748.261
G0 F1000 X0080.0 Y0148.0
G1 Z1
G1 F300  X0075.0 Y0143.0 E0000752.503
G0 F1000 X0075.0 Y0143.0
G1 Z1
G1 F300  X0075.0 Y0148.0 E0000755.503
G0 F1000 X0075.0 Y0148.0
G1 Z1
G1 F300  X0070.0 Y0148.0 E0000758.503
G0 F1000 X0070.0 Y0148.0
G1 Z1
G1 F300  X0075.0 Y0153.0 E0000762.746
G0 F1000 X0075.0 Y0153.0
G1 Z1
G1 F300  X0070.0 Y0158.0 E0000766.989
G0 F1000 X0070.0 Y0158.0
G1 Z1
G1 F300  X0075.0 Y0158.0 E0000769.989
G0 F1000 X0075.0 Y0158.0
G1 Z1
G1 F300  X0075.0 Y0163.0 E0000772.989
G0 F1000 X0075.0 Y0163.0
G1 Z1
G1 F300  X0080.0 Y0158.0 E0000777.231
G0 F1000 X0080.0 Y0158.0
G1 Z1
G1 F300  X0080.0 Y0165.0 E0000781.431
G0 F1000 X0080.0 Y0165.0
G1 Z1
G1 F300  X0081.0 Y0165.0 E0000782.031
G0 F1000 X0081.0 Y0165.0
G1 Z1
G1 F300  X0080.0 Y0165.0 E0000782.631
G0 F1000 X0080.0 Y0158.0
G1 Z1
G1 F300  X0080.0 Y0158.0 E0000782.631
G0 F1000 X0080.0 Y0158.0
G1 Z1
G1 F300  X0085.0 Y0163.0 E0000786.874
G0 F1000 X0085.0 Y0163.0
G1 Z1
G1 F300  X0085.0 Y0158.0 E0000789.874
G0 F1000 X0085.0 Y0158.0
G1 Z1
G1 F300  X0090.0 Y0158.0 E0000792.874
G0 F1000 X0090.0 Y0158.0
G1 Z1
G1 F300  X0085.0 Y0153.0 E0000797.116
G0 F1000 X0085.0 Y0153.0
G1 Z1
G1 F300  X0090.0 Y0148.0 E0000801.359
G0 F1000 X0090.0 Y0148.0
G1 Z1
G1 F300  X0085.0 Y0148.0 E0000804.359
G0 F1000 X0085.0 Y0148.0
G1 Z1
G1 F300  X0085.0 Y0143.0 E0000807.359
G0 F1000 X0085.0 Y0143.0
G1 Z1
G1 F300  X0080.0 Y0148.0 E0000811.602
G0 F1000 X0080.0 Y0148.0
G1 Z1
G1 F300  X0080.0 Y0145.0 E0000813.402
G0 F1000 X0080.0 Y0145.0
G1 Z1
G1 F300  X0090.0 Y0130.0 E0000824.218
G0 F1000 X0090.0 Y0130.0
G1 Z1
G1 F300  X0085.0 Y0130.0 E0000827.218
G0 F1000 X0085.0 Y0130.0
G1 Z1
G1 F300  X0095.0 Y0115.0 E0000838.035
G0 F1000 X0095.0 Y0115.0
G1 Z1
G1 F300  X0090.0 Y0115.0 E0000841.035
G0 F1000 X0090.0 Y0115.0
G1 Z1
G1 F300  X0100.0 Y0100.0 E0000851.852
G0 F1000 X0100.0 Y0100.0
G1 Z1
G1 F300  X0095.0 Y0100.0 E0000854.852
G0 F1000 X0095.0 Y0100.0
G1 Z1
G1 F300  X0105.0 Y0085.0 E0000865.668
G0 F1000 X0105.0 Y0085.0
G1 Z1
G1 F300  X0100.0 Y0085.0 E0000868.668
G0 F1000 X0100.0 Y0085.0
G1 Z1
G1 F300  X0110.0 Y0070.0 E0000879.485
G0 F1000 X0110.0 Y0070.0
G1 Z1
G1 F300  X0105.0 Y0070.0 E0000882.485
G0 F1000 X0105.0 Y0070.0
G1 Z1
G1 F300  X0115.0 Y0055.0 E0000893.302
G0 F1000 X0115.0 Y0055.0
G1 Z1
G1 F300  X0115.0 Y0055.0 E0000893.302
G0 F1000 X0115.0 Y0055.0
G1 Z1
G1 F300  X0090.0 Y0055.0 E0000908.302
G0 F1000 X0090.0 Y0055.0
G1 Z1
G1 F300  X0090.0 Y0045.0 E0000914.302
G0 F1000 X0090.0 Y0045.0
G1 Z1
G1 F300  X0092.0 Y0045.0 E0000915.502
G0 F1000 X0120.0 Y0045.0
G1 Z1
G1 F300  X0120.0 Y0045.0 E0000915.502


; nozzle cools down for the following 14 coordinates:
G0 F900 E910.5015
G0 F4800 X25.0  Y17.0
G1 X25.0  Y14.0
G1 X25.0  Y17.0
G1 X25.0  Y14.0
G1 X25.0  Y17.0
G1 X25.0  Y14.0
G1 X25.0  Y17.0
G1 X25.0  Y14.0
G1 X25.0  Y17.0
G1 X25.0  Y14.0
G1 X25.0  Y17.0
G1 X25.0  Y14.0
G1 X25.0  Y17.0
G1 X25.0  Y14.0
G1 X25.0  Y17.0
G1 X25.0  Y14.0
G10
;retract filament according to settings of M207
M107
;fan off
M104 S0
;End of Gcode
